theme/icons/chevron-double-right-r.svg

<svg fill="none" height="24" width="24" xmlns="http://www.w3.org/2000/svg"><g fill="#f4f4f7"><path d="m8.464 7.757-1.414 1.415 2.83 2.828-2.83 2.828 1.415 1.415 4.242-4.243z"/><path d="m11.293 9.172 1.414-1.415 4.243 4.243-4.243 4.243-1.414-1.415 2.827-2.828z"/><path clip-rule="evenodd" d="m23 5a4 4 0 0 0 -4-4h-14a4 4 0 0 0 -4 4v14a4 4 0 0 0 4 4h14a4 4 0 0 0 4-4zm-4-2h-14a2 2 0 0 0 -2 2v14a2 2 0 0 0 2 2h14a2 2 0 0 0 2-2v-14a2 2 0 0 0 -2-2z" fill-rule="evenodd"/></g></svg>

<svg fill="none" height="24" width="24" xmlns="http://www.w3.org/2000/svg">
    <g fill="#f4f4f7">
        <path d="M8.464 7.757 7.05 9.172 9.88 12l-2.83 2.828 1.415 1.415L12.707 12z"/>
        <path d="m11.293 9.172 1.414-1.415L16.95 12l-4.243 4.243-1.414-1.415L14.12 12z"/>
        <path clip-rule="evenodd" d="M23 5a4 4 0 0 0-4-4H5a4 4 0 0 0-4 4v14a4 4 0 0 0 4 4h14a4 4 0 0 0 4-4zm-4-2H5a2 2 0 0 0-2 2v14a2 2 0 0 0 2 2h14a2 2 0 0 0 2-2V5a2 2 0 0 0-2-2z" fill-rule="evenodd"/>
    </g>
</svg>
